static/images/visualization.svg

<svg height="101" viewBox="0 0 100 101" width="100" xmlns="http://www.w3.org/2000/svg" xmlns:xlink="http://www.w3.org/1999/xlink"><defs><circle id="a" cx="35.833333" cy="35.833333" r="35.833333"/><filter id="b" height="172.6%" width="172.6%" x="-36.3%" y="-30.7%"><feOffset dx="0" dy="4" in="SourceAlpha" result="shadowOffsetOuter1"/><feGaussianBlur in="shadowOffsetOuter1" result="shadowBlurOuter1" stdDeviation="8"/><feColorMatrix in="shadowBlurOuter1" type="matrix" values="0 0 0 0 0.254901961   0 0 0 0 0.458823529   0 0 0 0 0.647058824  0 0 0 0.24 0"/></filter><linearGradient id="c" x1="0%" x2="149.460671%" y1="0%" y2="71.875%"><stop offset="0" stop-color="#00eaf8"/><stop offset="1" stop-color="#6d42ef"/></linearGradient></defs><g fill="none" fill-rule="nonzero" transform="translate(14.166667 12.166667)"><g><use fill="#000" filter="url(#b)" xlink:href="#a"/><use fill="#fff" fill-rule="evenodd" xlink:href="#a"/></g><g fill="url(#c)" transform="translate(19.166667 14.166667)"><path d="m2.15962441 10.7981221c0 .4472728-.36258629.8098591-.80985915.8098591s-.80985916-.3625863-.80985916-.8098591c0-1.62769583 1.57353005-2.9694836 3.23943662-2.9694836h12.41784038c.4472729 0 .8098592.36258629.8098592.80985915s-.3625863.80985916-.8098592.80985916h-12.41784038c-.82351748 0-1.61971831.67893999-1.61971831 1.34976529zm26.18544599 14.5774648c0-.4472729.3625863-.8098592.8098592-.8098592.4472728 0 .8098591.3625863.8098591.8098592v8.6384976c0 1.7438198-.8022911 2.9694836-2.4295774 2.9694836h-23.75586858c-1.70019898 0-3.50938967-1.3447002-3.50938967-2.9694836v-18.8967136c0-.4472729.3625863-.8098592.80985916-.8098592s.80985915.3625863.80985915.8098592v18.8967136c0 .6084318.99740722 1.3497653 1.88967136 1.3497653h23.75586858c.5530205 0 .8098591-.3923736.8098591-1.3497653zm-21.86619716 6.2089201c-.44727286 0-.80985916-.3625863-.80985916-.8098591 0-.4472729.3625863-.8098592.80985916-.8098592h17.27699526c.4472729 0 .8098592.3625863.8098592.8098592 0 .4472728-.3625863.8098591-.8098592.8098591zm0-3.2394366c-.44727286 0-.80985916-.3625863-.80985916-.8098591 0-.4472729.3625863-.8098592.80985916-.8098592h8.09859156c.4472728 0 .8098591.3625863.8098591.8098592 0 .4472728-.3625863.8098591-.8098591.8098591z"/><path d="m24.5632975 9.50289604c-.7746993.44727286-1.7653035.18184128-2.2125764-.59285804-.4472728-.77469932-.1818412-1.7653035.5928581-2.21257636s1.7653035-.18184127 2.2125763.59285805c.4472729.77469932.1818413 1.76530349-.592858 2.21257635zm6.4801176 6.47471856c-.7746993.4472729-1.7653035.1818413-2.2125763-.592858-.4472729-.7746993-.1818413-1.7653035.592858-2.2125764.7746993-.4472728 1.7653035-.1818413 2.2125764.5928581.4472728.7746993.1818412 1.7653035-.5928581 2.2125763zm-7.2547958-.2875868c-.3162696.3162697-.8290441.3162697-1.1453138 0-.3162696-.3162697-.3162696-.8290441 0-1.1453138l7.5586855-7.55868545c.3162697-.31626968.8290441-.31626968 1.1453138 0 .3162697.31626967.3162697.82904412 0 1.1453138z"/><path d="m26.9953052 22.4061033c-6.1127291 0-11.0680752-4.955346-11.0680752-11.0680751 0-6.11272913 4.9553461-11.06807515 11.0680752-11.06807515s11.0680751 4.95534602 11.0680751 11.06807515c0 6.1127291-4.955346 11.0680751-11.0680751 11.0680751zm0-1.6197183c5.2181833 0 9.4483568-4.2301735 9.4483568-9.4483568 0-5.21818341-4.2301735-9.44835684-9.4483568-9.44835684-5.2181834 0-9.4483568 4.23017343-9.4483568 9.44835684 0 5.2181833 4.2301734 9.4483568 9.4483568 9.4483568z"/></g></g></svg>

<?xml version="1.0" encoding="UTF-8"?>
<svg width="100px" height="101px" viewBox="0 0 100 101" version="1.1" xmlns="http://www.w3.org/2000/svg" xmlns:xlink="http://www.w3.org/1999/xlink">
    <!-- Generator: Sketch 46.2 (44496) - http://www.bohemiancoding.com/sketch -->
    <title>ic/security copy</title>
    <desc>Created with Sketch.</desc>
    <defs>
        <circle id="path-1" cx="35.8333333" cy="35.8333333" r="35.8333333"></circle>
        <filter x="-36.3%" y="-30.7%" width="172.6%" height="172.6%" filterUnits="objectBoundingBox" id="filter-2">
            <feOffset dx="0" dy="4" in="SourceAlpha" result="shadowOffsetOuter1"></feOffset>
            <feGaussianBlur stdDeviation="8" in="shadowOffsetOuter1" result="shadowBlurOuter1"></feGaussianBlur>
            <feColorMatrix values="0 0 0 0 0.254901961   0 0 0 0 0.458823529   0 0 0 0 0.647058824  0 0 0 0.24 0" type="matrix" in="shadowBlurOuter1"></feColorMatrix>
        </filter>
        <linearGradient x1="0%" y1="0%" x2="149.460671%" y2="71.875%" id="linearGradient-3">
            <stop stop-color="#00EAF8" offset="0%"></stop>
            <stop stop-color="#6D42EF" offset="100%"></stop>
        </linearGradient>
    </defs>
    <g id="Page-1" stroke="none" stroke-width="1" fill="none" fill-rule="evenodd">
        <g id="Rakam-UI-Screen-10/10/2017-event" transform="translate(-208.000000, -937.000000)">
            <g id="Advanced-BI" transform="translate(148.000000, 744.000000)">
                <g id="icons">
                    <g id="3" transform="translate(14.000000, 191.000000)">
                        <g id="ic/visualization" transform="translate(46.000000, 0.000000)">
                            <g id="Group" transform="translate(14.166667, 14.166667)">
                                <g id="Oval" fill-rule="nonzero">
                                    <use fill="black" fill-opacity="1" filter="url(#filter-2)" xlink:href="#path-1"></use>
                                    <use fill="#FFFFFF" fill-rule="evenodd" xlink:href="#path-1"></use>
                                </g>
                                <g id="colored_taxes-78" transform="translate(19.166667, 14.166667)" fill-rule="nonzero" fill="url(#linearGradient-3)">
                                    <path d="M2.15962441,10.7981221 C2.15962441,11.2453949 1.79703812,11.6079812 1.34976526,11.6079812 C0.902492397,11.6079812 0.539906103,11.2453949 0.539906103,10.7981221 C0.539906103,9.17042627 2.11343615,7.8286385 3.77934272,7.8286385 L16.1971831,7.8286385 C16.644456,7.8286385 17.0070423,8.19122479 17.0070423,8.63849765 C17.0070423,9.08577051 16.644456,9.44835681 16.1971831,9.44835681 L3.77934272,9.44835681 C2.95582524,9.44835681 2.15962441,10.1272968 2.15962441,10.7981221 Z M28.3450704,25.3755869 C28.3450704,24.928314 28.7076567,24.5657277 29.1549296,24.5657277 C29.6022024,24.5657277 29.9647887,24.928314 29.9647887,25.3755869 L29.9647887,34.0140845 C29.9647887,35.7579043 29.1624976,36.9835681 27.5352113,36.9835681 L3.77934272,36.9835681 C2.07914374,36.9835681 0.269953052,35.6388679 0.269953052,34.0140845 L0.269953052,15.1173709 C0.269953052,14.670098 0.632539346,14.3075117 1.07981221,14.3075117 C1.52708507,14.3075117 1.88967136,14.670098 1.88967136,15.1173709 L1.88967136,34.0140845 C1.88967136,34.6225163 2.88707858,35.3638498 3.77934272,35.3638498 L27.5352113,35.3638498 C28.0882318,35.3638498 28.3450704,34.9714762 28.3450704,34.0140845 L28.3450704,25.3755869 Z M6.47887324,31.584507 C6.03160038,31.584507 5.66901408,31.2219207 5.66901408,30.7746479 C5.66901408,30.327375 6.03160038,29.9647887 6.47887324,29.9647887 L23.7558685,29.9647887 C24.2031414,29.9647887 24.5657277,30.327375 24.5657277,30.7746479 C24.5657277,31.2219207 24.2031414,31.584507 23.7558685,31.584507 L6.47887324,31.584507 Z M6.47887324,28.3450704 C6.03160038,28.3450704 5.66901408,27.9824841 5.66901408,27.5352113 C5.66901408,27.0879384 6.03160038,26.7253521 6.47887324,26.7253521 L14.5774648,26.7253521 C15.0247376,26.7253521 15.3873239,27.0879384 15.3873239,27.5352113 C15.3873239,27.9824841 15.0247376,28.3450704 14.5774648,28.3450704 L6.47887324,28.3450704 Z" id="Combined-Shape"></path>
                                    <path d="M24.5632975,9.50289604 C23.7885982,9.9501689 22.797994,9.68473732 22.3507211,8.910038 C21.9034483,8.13533868 22.1688799,7.1447345 22.9435792,6.69746164 C23.7182785,6.25018878 24.7088827,6.51562037 25.1561555,7.29031969 C25.6034284,8.06501901 25.3379968,9.05562318 24.5632975,9.50289604 Z M31.0434151,15.9776146 C30.2687158,16.4248875 29.2781116,16.1594559 28.8308388,15.3847566 C28.3835659,14.6100573 28.6489975,13.6194531 29.4236968,13.1721802 C30.1983961,12.7249074 31.1890003,12.9903389 31.6362732,13.7650383 C32.083546,14.5397376 31.8181144,15.5303418 31.0434151,15.9776146 Z M23.7886193,15.6900278 C23.4723497,16.0062975 22.9595752,16.0062975 22.6433055,15.6900278 C22.3270359,15.3737581 22.3270359,14.8609837 22.6433055,14.544714 L30.201991,6.98602855 C30.5182607,6.66975887 31.0310351,6.66975887 31.3473048,6.98602855 C31.6635745,7.30229822 31.6635745,7.81507267 31.3473048,8.13134235 L23.7886193,15.6900278 Z" id="Combined-Shape"></path>
                                    <path d="M26.9953052,22.4061033 C20.8825761,22.4061033 15.92723,17.4507573 15.92723,11.3380282 C15.92723,5.22529907 20.8825761,0.269953052 26.9953052,0.269953052 C33.1080343,0.269953052 38.0633803,5.22529907 38.0633803,11.3380282 C38.0633803,17.4507573 33.1080343,22.4061033 26.9953052,22.4061033 Z M26.9953052,20.786385 C32.2134885,20.786385 36.443662,16.5562115 36.443662,11.3380282 C36.443662,6.11984479 32.2134885,1.88967136 26.9953052,1.88967136 C21.7771218,1.88967136 17.5469484,6.11984479 17.5469484,11.3380282 C17.5469484,16.5562115 21.7771218,20.786385 26.9953052,20.786385 Z" id="Oval"></path>
                                </g>
                            </g>
                        </g>
                    </g>
                </g>
            </g>
        </g>
    </g>
</svg>
